public/assets/techs/css.svg

<svg width="20" height="20" viewBox="0 0 20 20" fill="none" xmlns="http://www.w3.org/2000/svg">
<path d="M14.318 14.852L10.004 16.082L5.696 14.846L5.4 11.444H7.512L7.662 13.174L10.006 13.838L10.012 13.85H10.014L12.354 13.2L12.6 10.394H7.682L7.506 8.206H12.784L12.976 5.974H4.926L4.75 3.83H15.276L14.318 14.852Z" fill="#EEEEEE"/>
<path d="M1.60001 0.199997L3.12801 17.844L9.99001 19.8L16.87 17.844L18.4 0.199997H1.60001ZM15.558 16.76L9.99001 18.344L4.44001 16.76L3.12601 1.6H16.872L15.558 16.76Z" fill="#EEEEEE"/>
</svg>

<svg xmlns="http://www.w3.org/2000/svg" width="20" height="20" fill="#1572b6" xmlns:v="https://vecta.io/nano"><path d="M14.318 14.852l-4.314 1.23-4.308-1.236-.296-3.402h2.112l.15 1.73 2.344.664.006.012h.002l2.34-.65.246-2.806H7.682l-.176-2.188h5.278l.192-2.232h-8.05L4.75 3.83h10.526l-.958 11.022zM1.6.2l1.528 17.644L9.99 19.8l6.88-1.956L18.4.2H1.6zm13.958 16.56L9.99 18.344 4.44 16.76 3.126 1.6h13.746l-1.314 15.16z"/></svg>
